Catalina-dark/actions/22/mail-attachment.svg

<svg xmlns="http://www.w3.org/2000/svg" viewBox="0 0 22 22">
  <defs id="defs3051">
    <style type="text/css" id="current-color-scheme">
      .ColorScheme-Text {
        color:#f2f2f2
      }
      </style>
  </defs>
 <path 
     style="fill:currentColor;fill-opacity:1;stroke:none"      
	 class="ColorScheme-Text"
        d="M 15.734237,3.0044903 C 14.53344,2.9492931 13.268706,3.4043637 12.56622,4.2934925 L 7.3224023,10.931826 6.571862,11.880992 c -0.7493132,0.948393 -0.5383961,2.637775 0.4207017,3.378738 0.9590844,0.740976 2.6675354,0.53436 3.4168763,-0.414033 L 15.653257,8.2054035 14.695346,7.4652006 9.4495461,14.103548 C 9.0748891,14.577737 8.2206511,14.681025 7.7411083,14.310564 7.2615662,13.940076 7.1570852,13.095385 7.5317553,12.621195 L 8.2803001,11.673976 12.777541,5.9828614 13.5261,5.0356421 c 0.749326,-0.9484059 2.457778,-1.1569555 3.416876,-0.4159925 0.959084,0.7409496 1.168046,2.4303451 0.41872,3.3787243 L 16.613137,8.9475531 10.618793,16.535066 C 9.4947951,17.957648 6.9321322,18.267566 5.4934788,17.156128 4.0548523,16.044677 3.7394407,13.510604 4.8634241,12.088022 L 10.857782,4.5005089 9.8998711,3.7603059 3.9055264,11.347819 c -1.4986671,1.896785 -1.0807565,5.275536 0.8374256,6.757475 1.918182,1.481926 5.335085,1.06676 6.833752,-0.830038 L 17.573017,9.687742 18.321576,8.7405368 C 19.445572,7.3179546 19.130174,4.783868 17.691534,3.6724303 17.152032,3.2556378 16.45471,3.037582 15.734237,3.0044903 Z"
     />
</svg>

<svg viewBox="0 0 22 22" xmlns="http://www.w3.org/2000/svg">
<defs>
<style id="current-color-scheme" type="text/css">.ColorScheme-Text {
        color:#f2f2f2
      }</style>
</defs>
<path class="ColorScheme-Text" d="m15.734 3.0045c-1.2008-0.055197-2.4655 0.39987-3.168 1.289l-5.2438 6.6383-0.75054 0.94917c-0.74931 0.94839-0.5384 2.6378 0.4207 3.3787 0.95908 0.74098 2.6675 0.53436 3.4169-0.41403l5.2438-6.6403-0.95791-0.7402-5.2458 6.6383c-0.37466 0.47419-1.2289 0.57748-1.7084 0.20702-0.47954-0.37049-0.58402-1.2152-0.20935-1.6894l0.74854-0.94722 4.4972-5.6911 0.74856-0.94722c0.74933-0.94841 2.4578-1.157 3.4169-0.41599 0.95908 0.74095 1.168 2.4303 0.41872 3.3787l-0.74856 0.94918-5.9943 7.5875c-1.124 1.4226-3.6867 1.7325-5.1253 0.62106-1.4386-1.1115-1.754-3.6455-0.63005-5.0681l5.9944-7.5875-0.95791-0.7402-5.9943 7.5875c-1.4987 1.8968-1.0808 5.2755 0.83743 6.7575 1.9182 1.4819 5.3351 1.0668 6.8338-0.83004l6.7449-8.5347c1.124-1.4226 0.8086-3.9567-0.63004-5.0681-0.5395-0.41679-1.2368-0.63485-1.9573-0.66794z" fill="currentColor"/>
</svg>
